X: 11812
Q: "Moderate."
M: 2/4
L: 1/8
K: G
(d/c/) |\
dcAF | edBG | dcAF | ed zd |\
d^cce | eddf | feg^c | "^D.C."d3 |]


